X: 1
T: the Tipsy Sailor
H: Scottish jig
M: 6/8
R: jig
K: Edor
D |\
"Em"E2B BAB | E2B BAB | "D"ded dcB | AFD DEF |\
"Em"E2B BAB | E2B BAB | "D"AdB AFA | "Em"BGE E2 :|
f |\
"Em"eBe gfe | Bef gfe | "D"fdA FAd | fdf "(B7)"agf |\
"Em"eBe gfe | Bef gfe | "D"fdf "B7"gfg | "Em"bge e2 ||
f |\
"Em"eBe gfe | Bef gfe | "D"fdA FAd | fdf "(B7)"agf |\
"G(Em)"gba gfe | "D"fag fed | "G"B{c}dB "D"AFA | "Em"BGE E2 |]

